apps/22/utilities-terminal.svg

<?xml version="1.0" encoding="UTF-8" standalone="no"?>
<!-- Created with Inkscape (http://www.inkscape.org/) -->

<svg
   xmlns:dc="http://purl.org/dc/elements/1.1/"
   xmlns:cc="http://creativecommons.org/ns#"
   xmlns:rdf="http://www.w3.org/1999/02/22-rdf-syntax-ns#"
   xmlns:svg="http://www.w3.org/2000/svg"
   xmlns="http://www.w3.org/2000/svg"
   xmlns:xlink="http://www.w3.org/1999/xlink"
   xmlns:sodipodi="http://sodipodi.sourceforge.net/DTD/sodipodi-0.dtd"
   xmlns:inkscape="http://www.inkscape.org/namespaces/inkscape"
   width="22"
   height="22"
   id="svg13094"
   version="1.1"
   inkscape:version="0.48.3.1 r9886"
   sodipodi:docname="utilities-terminal.svg">
  <sodipodi:namedview
     id="base"
     pagecolor="#ffffff"
     bordercolor="#666666"
     borderopacity="1.0"
     inkscape:pageopacity="0.0"
     inkscape:pageshadow="2"
     inkscape:zoom="28.963094"
     inkscape:cx="13.436378"
     inkscape:cy="10.383938"
     inkscape:document-units="px"
     inkscape:current-layer="layer1"
     showgrid="true"
     inkscape:snap-bbox="true"
     inkscape:bbox-paths="true"
     inkscape:bbox-nodes="true"
     inkscape:snap-bbox-edge-midpoints="true"
     inkscape:snap-bbox-midpoints="true"
     inkscape:object-paths="true"
     inkscape:snap-intersection-paths="true"
     inkscape:object-nodes="true"
     inkscape:snap-smooth-nodes="true"
     inkscape:snap-midpoints="true"
     inkscape:snap-object-midpoints="true"
     inkscape:snap-center="true"
     showguides="true"
     inkscape:guide-bbox="true"
     inkscape:window-width="1920"
     inkscape:window-height="1033"
     inkscape:window-x="-10"
     inkscape:window-y="25"
     inkscape:window-maximized="1"
     inkscape:snap-global="true"
     fit-margin-top="0"
     fit-margin-left="0"
     fit-margin-right="0"
     fit-margin-bottom="0"
     showborder="true"
     inkscape:showpageshadow="false">
    <sodipodi:guide
       orientation="1,0"
       position="521.71982,537.11325"
       id="guide7209" />
    <sodipodi:guide
       orientation="0,1"
       position="601.71982,617.11325"
       id="guide7211" />
    <sodipodi:guide
       orientation="0,1"
       position="80.000089,1058.8326"
       id="guide7213" />
    <sodipodi:guide
       orientation="1,0"
       position="80.000089,1058.8325"
       id="guide7215" />
    <inkscape:grid
       type="xygrid"
       id="grid3131"
       empspacing="5"
       visible="true"
       enabled="true"
       snapvisiblegridlinesonly="true"
       originx="0.0002329375px"
       originy="10.999838px" />
  </sodipodi:namedview>
  <defs
     id="defs13096">
    <linearGradient
       id="linearGradient4192-0">
      <stop
         id="stop4194-8"
         offset="0"
         style="stop-color:#ff760b;stop-opacity:1" />
      <stop
         style="stop-color:#cf5d24;stop-opacity:1"
         offset="0.40902501"
         id="stop4196-7" />
      <stop
         id="stop4198-1"
         offset="0.58842754"
         style="stop-color:#eb6e27;stop-opacity:1" />
      <stop
         id="stop4200-2"
         offset="1"
         style="stop-color:#fdac3f;stop-opacity:1" />
    </linearGradient>
    <linearGradient
       y2="-36.114166"
       x2="-3283.8335"
       y1="417.07828"
       x1="-3022.1826"
       gradientTransform="matrix(0.78126698,0,0,0.78126698,-723.49331,71.224053)"
       gradientUnits="userSpaceOnUse"
       id="linearGradient3094"
       xlink:href="#linearGradient4192-0"
       inkscape:collect="always" />
  </defs>
  <metadata
     id="metadata13099">
    <rdf:RDF>
      <cc:Work
         rdf:about="">
        <dc:format>image/svg+xml</dc:format>
        <dc:type
           rdf:resource="http://purl.org/dc/dcmitype/StillImage" />
        <dc:title />
      </cc:Work>
    </rdf:RDF>
  </metadata>
  <g
     transform="translate(9398.6162,-5029.9922)"
     id="layer1"
     inkscape:groupmode="layer"
     inkscape:label="Camada 1">
    <path
       sodipodi:nodetypes="ccccccccccccccccccccccc"
       inkscape:connector-curvature="0"
       style="fill:#27303a;fill-opacity:0.753280819999999968;fill-rule:nonzero;stroke:none"
       d="m -9396.616,5032.9924 0,2 18,0 0,-2 z m 0,3 0,10 18,0 0,-10 z m 2.7812,1.9688 4.5,2.6249 0,0.8125 -4.5,2.625 -0.8125,-1.3125 3.125,-1.7187 -3.125,-1.7188 z m -2.7812,9.0312 0,2 18,0 0,-2 z"
       id="path2994" />
    <path
       style="font-size:medium;font-style:normal;font-variant:normal;font-weight:normal;font-stretch:normal;text-indent:0;text-align:start;text-decoration:none;line-height:normal;letter-spacing:normal;word-spacing:normal;text-transform:none;direction:ltr;block-progression:tb;writing-mode:lr-tb;text-anchor:start;baseline-shift:baseline;color:#000000;fill:#f1f3f5;fill-opacity:0.90288714000000003;fill-rule:nonzero;stroke:none;stroke-width:2;marker:none;visibility:visible;display:inline;overflow:visible;enable-background:accumulate;font-family:Sans;-inkscape-font-specification:Sans"
       d="M 1 2 L 1 3 L 1 5 L 1 6 L 1 16 L 1 17 L 1 19 L 1 20 L 2 20 L 20 20 L 21 20 L 21 19 L 21 17 L 21 16 L 21 6 L 21 5 L 21 3 L 21 2 L 20 2 L 2 2 L 1 2 z M 2 3 L 20 3 L 20 5 L 2 5 L 2 3 z M 2 6 L 20 6 L 20 16 L 2 16 L 2 6 z M 4.78125 7.96875 L 3.96875 9.28125 L 7.09375 11 L 3.96875 12.71875 L 4.78125 14.03125 L 9.28125 11.40625 L 9.28125 10.59375 L 4.78125 7.96875 z M 2 17 L 20 17 L 20 19 L 2 19 L 2 17 z "
       transform="translate(-9398.6162,5029.9922)"
       id="path3069" />
  </g>
</svg>

<?xml version="1.0" encoding="UTF-8"?>
<!-- Created with Inkscape (http://www.inkscape.org/) -->
<svg width="22" height="22" version="1.1" xmlns="http://www.w3.org/2000/svg" xmlns:cc="http://creativecommons.org/ns#" xmlns:dc="http://purl.org/dc/elements/1.1/" xmlns:rdf="http://www.w3.org/1999/02/22-rdf-syntax-ns#" xmlns:xlink="http://www.w3.org/1999/xlink">
	<defs>
		<radialGradient id="a" cx="11" cy="5.4446" r="10" gradientTransform="matrix(1 0 0 .9 0 1.1)" gradientUnits="userSpaceOnUse">
			<stop stop-color="#ffffff" stop-opacity=".74858" offset="0"/>
			<stop stop-color="#ffffff" stop-opacity=".60511" offset="1"/>
		</radialGradient>
		<radialGradient id="b" cx="353.34" cy="-90.447" r="7.254" gradientTransform="matrix(1.4245 0 0 1.3785 -9890.9 5170.7)" gradientUnits="userSpaceOnUse">
			<stop stop-color="#213851" stop-opacity=".9059" offset="0"/>
			<stop stop-color="#27303a" stop-opacity="0" offset="1"/>
		</radialGradient>
	</defs>
	<metadata>
		<rdf:RDF>
			<cc:Work rdf:about="">
				<dc:format>image/svg+xml</dc:format>
				<dc:type rdf:resource="http://purl.org/dc/dcmitype/StillImage"/>
				<dc:title/>
			</cc:Work>
		</rdf:RDF>
	</metadata>
	<g transform="translate(9398.6 -5030)">
		<path d="m-9396.6 5033v2h18v-2zm0 3v10h18v-10zm2.7812 1.9688 4.5 2.6249v0.8125l-4.5 2.625-0.8125-1.3125 3.125-1.7187-3.125-1.7188zm-2.7812 9.0312v2h18v-2z" fill="#090d11" fill-opacity=".76621" style="font-variant-east_asian:normal;paint-order:normal"/>
		<path d="m-9396.6 5033v2h18v-2zm0 3v10h18v-10zm2.7812 1.9688 4.5 2.6249v0.8125l-4.5 2.625-0.8125-1.3125 3.125-1.7187-3.125-1.7188zm-2.7812 9.0312v2h18v-2z" fill="url(#b)" fill-opacity=".7533" style="font-variant-east_asian:normal;paint-order:normal"/>
		<path transform="translate(-9398.6 5030)" d="m1 2v1 2 1 10 1 2 1h1 18 1v-1-2-1-10-1-2-1h-1-18-1zm1 1h18v2h-18v-2zm0 3h18v10h-18v-10zm2.7812 1.9688-0.8125 1.3125 3.125 1.7188-3.125 1.7188 0.8125 1.3125 4.5-2.625v-0.8125l-4.5-2.625zm-2.7812 9.0312h18v2h-18v-2z" color="#000000" fill="url(#a)" fill-opacity=".99858" style="block-progression:tb;font-variant-east_asian:normal;paint-order:normal;text-indent:0;text-transform:none"/>
	</g>
</svg>
